public/images/broadcasters/nos.svg

<svg fill="none" viewBox="0 0 115 41" xmlns="http://www.w3.org/2000/svg"><g clip-rule="evenodd" fill-rule="evenodd"><path d="m33.6749 39.321v-38.344804h-10.2009v10.462704c0 3.1234.055 8.2168.328 9.9141-.8222-1.5876-4.2225-6.6826-5.9784-9.0365l-8.44497-11.340304h-9.37863v38.344804h10.2024v-11.7211c0-3.1234-.0565-8.2184-.3295-9.9157.987 1.6973 4.2774 6.6277 5.9784 8.9848l9.1573 12.652z" fill="#fff"/><path d="m114.161 27.5425c0-7.1746-4.279-10.132-13.933-12.4326-4.9345-1.1504-6.3043-1.8086-6.3043-3.2332 0-1.3681.7673-2.35548 3.9479-2.35548 3.8934 0 7.2934 1.31648 10.6954 3.61708l5.154-8.32654c-4.059-2.84761-8.774-4.43676-15.3002-4.43676-9.2704 0-15.1389 4.87401-15.1389 12.1051 0 7.6683 4.4437 10.1884 13.7125 12.3245 5.1546 1.2052 6.5246 2.0813 6.5246 3.5043 0 1.8101-1.205 2.4668-4.9884 2.4668-3.5651 0-8.4466-1.9167-11.2443-3.835l-5.1546 8.3266c4.0044 2.6282 9.9812 4.6562 16.1776 4.6562 9.2157 0 15.8517-3.6156 15.8517-12.381z" fill="#fff"/><path d="m59.128 29.9117c-5.4433 0-9.8556-4.4085-9.8556-9.8436 0-5.4367 4.4123-9.8452 9.8556-9.8452s9.8572 4.4085 9.8572 9.8452c0 5.4351-4.4139 9.8436-9.8572 9.8436zm0-29.9117c-11.0952 0-20.091 8.98323-20.091 20.0681 0 11.0817 8.9958 20.0665 20.091 20.0665 11.0968 0 20.0926-8.9848 20.0926-20.0665 0-11.08487-8.9958-20.0681-20.0926-20.0681z" fill="#e61e14"/></g></svg>

<svg fill="none" viewBox="0 0 115 41" class="MainNavBar-style__StyledNosLogo-sc-1b875ba6-6 fDUETp" xmlns="http://www.w3.org/2000/svg"><path clip-rule="evenodd" d="M33.6749 39.321V0.976196H23.474V11.4389C23.474 14.5623 23.529 19.6557 23.802 21.353C22.9798 19.7654 19.5795 14.6704 17.8236 12.3165L9.37863 0.976196H0V39.321H10.2024V27.5999C10.2024 24.4765 10.1459 19.3815 9.8729 17.6842C10.8599 19.3815 14.1503 24.3119 15.8513 26.669L25.0086 39.321H33.6749Z" fill="#ffffff" fill-rule="evenodd"></path><path clip-rule="evenodd" d="M114.161 27.5425C114.161 20.3679 109.882 17.4105 100.228 15.1099C95.2935 13.9595 93.9237 13.3013 93.9237 11.8767C93.9237 10.5086 94.691 9.52122 97.8716 9.52122C101.765 9.52122 105.165 10.8377 108.567 13.1383L113.721 4.81176C109.662 1.96415 104.947 0.375 98.4208 0.375C89.1504 0.375 83.2819 5.24901 83.2819 12.4801C83.2819 20.1484 87.7256 22.6685 96.9944 24.8046C102.149 26.0098 103.519 26.8859 103.519 28.3089C103.519 30.119 102.314 30.7757 98.5306 30.7757C94.9655 30.7757 90.084 28.859 87.2863 26.9407L82.1317 35.2673C86.1361 37.8955 92.1129 39.9235 98.3093 39.9235C107.525 39.9235 114.161 36.3079 114.161 27.5425Z" fill="#ffffff" fill-rule="evenodd"></path><path clip-rule="evenodd" d="M59.128 29.9117C53.6847 29.9117 49.2724 25.5032 49.2724 20.0681C49.2724 14.6314 53.6847 10.2229 59.128 10.2229C64.5713 10.2229 68.9852 14.6314 68.9852 20.0681C68.9852 25.5032 64.5713 29.9117 59.128 29.9117ZM59.128 0C48.0328 0 39.037 8.98323 39.037 20.0681C39.037 31.1498 48.0328 40.1346 59.128 40.1346C70.2248 40.1346 79.2206 31.1498 79.2206 20.0681C79.2206 8.98323 70.2248 0 59.128 0Z" fill="#E61E14" fill-rule="evenodd"></path></svg>
